src/assets/head.svg

<svg fill="none" height="262" viewBox="0 0 262 262" width="262" xmlns="http://www.w3.org/2000/svg"><path d="m130.61 24.82 20.68-24.82 12.01 29.99 27.34-17.21 2.15 32.24 31.32-7.92-7.92 31.32 32.24 2.15-17.22 27.34 30 12.01-24.82 20.68 24.82 20.69-30 12 17.22 27.34-32.24 2.15 7.92 31.32-31.32-7.92-2.15 32.24-27.34-17.21-12.01 30-20.68-24.82-20.69 24.82-12-30-27.3501 17.21-2.1399-32.24-31.33 7.92 7.92-31.32-32.23-2.15 17.21-27.34-30-12 24.8199-20.69-24.8199-20.68 30-12.01-17.21-27.34 32.23-2.15-7.92-31.32 31.33 7.92 2.1399-32.24 27.3501 17.21 12-29.99z" fill="#4eb3b2"/></svg>

<svg width="262" height="262" viewBox="0 0 262 262" fill="none" xmlns="http://www.w3.org/2000/svg">
<path d="M130.61 24.82L151.29 0L163.3 29.99L190.64 12.78L192.79 45.02L224.11 37.1L216.19 68.42L248.43 70.57L231.21 97.91L261.21 109.92L236.39 130.6L261.21 151.29L231.21 163.29L248.43 190.63L216.19 192.78L224.11 224.1L192.79 216.18L190.64 248.42L163.3 231.21L151.29 261.21L130.61 236.39L109.92 261.21L97.92 231.21L70.5699 248.42L68.43 216.18L37.1 224.1L45.02 192.78L12.79 190.63L30 163.29L0 151.29L24.8199 130.6L0 109.92L30 97.91L12.79 70.57L45.02 68.42L37.1 37.1L68.43 45.02L70.5699 12.78L97.92 29.99L109.92 0L130.61 24.82Z" fill="#4E868E"/>
</svg>
